src/assets/images/logo.svg

<svg fill="none" height="64" viewBox="0 0 64 64" width="64" xmlns="http://www.w3.org/2000/svg" xmlns:xlink="http://www.w3.org/1999/xlink"><filter id="a" color-interpolation-filters="sRGB" filterUnits="userSpaceOnUse" height="85" width="79" x="-7" y="1"><feFlood flood-opacity="0" result="BackgroundImageFix"/><feColorMatrix in="SourceAlpha" result="hardAlpha" type="matrix" values="0 0 0 0 0 0 0 0 0 0 0 0 0 0 0 0 0 0 127 0"/><feOffset dy="-3"/><feGaussianBlur stdDeviation="1.5"/><feComposite in2="hardAlpha" operator="out"/><feColorMatrix type="matrix" values="0 0 0 0 1 0 0 0 0 1 0 0 0 0 1 0 0 0 0.1 0"/><feBlend in2="BackgroundImageFix" mode="normal" result="effect1_dropShadow_720_48"/><feColorMatrix in="SourceAlpha" result="hardAlpha" type="matrix" values="0 0 0 0 0 0 0 0 0 0 0 0 0 0 0 0 0 0 127 0"/><feOffset dy="4"/><feGaussianBlur stdDeviation="2"/><feComposite in2="hardAlpha" operator="out"/><feColorMatrix type="matrix" values="0 0 0 0 0 0 0 0 0 0 0 0 0 0 0 0 0 0 0.25 0"/><feBlend in2="effect1_dropShadow_720_48" mode="normal" result="effect2_dropShadow_720_48"/><feBlend in="SourceGraphic" in2="effect2_dropShadow_720_48" mode="normal" result="shape"/></filter><linearGradient id="b"><stop offset="0" stop-color="#1d4ed8"/><stop offset="1" stop-color="#1e40af"/></linearGradient><linearGradient id="c" gradientUnits="userSpaceOnUse" x1="53.5" x2="6.43755" xlink:href="#b" y1="-2.06452" y2="63.9555"/><linearGradient id="d" gradientUnits="userSpaceOnUse" x1="53.5" x2="6.43755" y1="-2.06452" y2="63.9555"><stop offset="0" stop-color="#1dd8cd"/><stop offset="1" stop-color="#1e41b4"/></linearGradient><linearGradient id="e" gradientUnits="userSpaceOnUse" x1="56.3516" x2="4.14166" xlink:href="#b" y1="4.70967" y2="77.9506"/><mask id="f" height="64" maskUnits="userSpaceOnUse" width="64" x="0" y="0"><path clip-rule="evenodd" d="m39.6361 1.45881 22.8775 23.13399c1.0755 1.0876 1.6133 2.622 1.461 4.1689l-3.0164 30.6453c-.2567 2.6085-2.3826 4.593-4.9204 4.593h-51.09198c-2.7315 0-4.94582-2.2878-4.94582-5.11 0-.9261.24362-1.8349.704814-2.6291l31.230886-53.77921c1.4053-2.4199862 4.4433-3.204702 6.7856-1.752708.3315.2055.6385.450448.9148.729828z" fill="url(#c)" fill-rule="evenodd"/></mask><g mask="url(#f)"><path clip-rule="evenodd" d="m39.6361 1.45881 22.8775 23.13399c1.0755 1.0876 1.6133 2.622 1.461 4.1689l-3.0164 30.6453c-.2567 2.6085-2.3826 4.593-4.9204 4.593h-51.09198c-2.7315 0-4.94582-2.2878-4.94582-5.11 0-.9261.24362-1.8349.704814-2.6291l31.230886-53.77921c1.4053-2.4199863 4.4433-3.204702 6.7856-1.752708.3315.2055.6385.450448.9148.729828z" fill="url(#d)" fill-rule="evenodd"/><g filter="url(#a)"><path clip-rule="evenodd" d="m40.9713 8.61837 25.3797 25.66423c1.1932 1.2066 1.7897 2.9088 1.6208 4.6249l-3.3462 33.9971c-.2849 2.8939-2.6433 5.0954-5.4587 5.0954h-56.68014c-3.030251 0-5.48676-2.538-5.48676-5.6689 0-1.0274.27027-2.0356.7819-2.9166l34.6467-59.66137c1.5591-2.68468 4.9294-3.55522 7.5278-1.94442.3678.22798.7084.49972 1.0149.80966z" fill="url(#e)" fill-rule="evenodd"/></g></g></svg>

<svg width="64" height="64" viewBox="0 0 64 64" fill="none"
  xmlns="http://www.w3.org/2000/svg">
  <mask id="mask0_720_48" style="mask-type:alpha" maskUnits="userSpaceOnUse" x="0" y="0" width="64" height="64">
    <path fill-rule="evenodd" clip-rule="evenodd" d="M39.6361 1.45881L62.5136 24.5928C63.5891 25.6804 64.1269 27.2148 63.9746 28.7617L60.9582 59.407C60.7015 62.0155 58.5756 64 56.0378 64H4.94582C2.21432 64 0 61.7122 0 58.89C0 57.9639 0.24362 57.0551 0.704814 56.2609L31.9357 2.48169C33.341 0.0617038 36.379 -0.723012 38.7213 0.728982C39.0528 0.934482 39.3598 1.17943 39.6361 1.45881Z" fill="url(#paint0_linear_720_48)"/>
  </mask>
  <g mask="url(#mask0_720_48)">
    <path fill-rule="evenodd" clip-rule="evenodd" d="M39.6361 1.45881L62.5136 24.5928C63.5891 25.6804 64.1269 27.2148 63.9746 28.7617L60.9582 59.407C60.7015 62.0155 58.5756 64 56.0378 64H4.94582C2.21432 64 0 61.7122 0 58.89C0 57.9639 0.24362 57.0551 0.704814 56.2609L31.9357 2.48169C33.341 0.0617037 36.379 -0.723012 38.7213 0.728982C39.0528 0.934482 39.3598 1.17943 39.6361 1.45881Z" fill="url(#paint1_linear_720_48)"/>
    <g filter="url(#filter0_dd_720_48)">
      <path fill-rule="evenodd" clip-rule="evenodd" d="M40.9713 8.61837L66.351 34.2826C67.5442 35.4892 68.1407 37.1914 67.9718 38.9075L64.6256 72.9046C64.3407 75.7985 61.9823 78 59.1669 78H2.48676C-0.543491 78 -3 75.462 -3 72.3311C-3 71.3037 -2.72973 70.2955 -2.2181 69.4145L32.4286 9.75313C33.9877 7.06845 37.358 6.19791 39.9564 7.80871C40.3242 8.03669 40.6648 8.30843 40.9713 8.61837Z" fill="url(#paint2_linear_720_48)"/>
    </g>
  </g>
  <defs>
    <filter id="filter0_dd_720_48" x="-7" y="1" width="79" height="85" filterUnits="userSpaceOnUse" color-interpolation-filters="sRGB">
      <feFlood flood-opacity="0" result="BackgroundImageFix"/>
      <feColorMatrix in="SourceAlpha" type="matrix" values="0 0 0 0 0 0 0 0 0 0 0 0 0 0 0 0 0 0 127 0" result="hardAlpha"/>
      <feOffset dy="-3"/>
      <feGaussianBlur stdDeviation="1.5"/>
      <feComposite in2="hardAlpha" operator="out"/>
      <feColorMatrix type="matrix" values="0 0 0 0 1 0 0 0 0 1 0 0 0 0 1 0 0 0 0.1 0"/>
      <feBlend mode="normal" in2="BackgroundImageFix" result="effect1_dropShadow_720_48"/>
      <feColorMatrix in="SourceAlpha" type="matrix" values="0 0 0 0 0 0 0 0 0 0 0 0 0 0 0 0 0 0 127 0" result="hardAlpha"/>
      <feOffset dy="4"/>
      <feGaussianBlur stdDeviation="2"/>
      <feComposite in2="hardAlpha" operator="out"/>
      <feColorMatrix type="matrix" values="0 0 0 0 0 0 0 0 0 0 0 0 0 0 0 0 0 0 0.25 0"/>
      <feBlend mode="normal" in2="effect1_dropShadow_720_48" result="effect2_dropShadow_720_48"/>
      <feBlend mode="normal" in="SourceGraphic" in2="effect2_dropShadow_720_48" result="shape"/>
    </filter>
    <linearGradient id="paint0_linear_720_48" x1="53.5" y1="-2.06452" x2="6.43755" y2="63.9555" gradientUnits="userSpaceOnUse">
      <stop stop-color="#1D4ED8"/>
      <stop offset="1" stop-color="#1E40AF"/>
    </linearGradient>
    <linearGradient id="paint1_linear_720_48" x1="53.5" y1="-2.06452" x2="6.43755" y2="63.9555" gradientUnits="userSpaceOnUse">
      <stop stop-color="#1DD8CD"/>
      <stop offset="1" stop-color="#1E41B4"/>
    </linearGradient>
    <linearGradient id="paint2_linear_720_48" x1="56.3516" y1="4.70967" x2="4.14166" y2="77.9506" gradientUnits="userSpaceOnUse">
      <stop stop-color="#1D4ED8"/>
      <stop offset="1" stop-color="#1E40AF"/>
    </linearGradient>
  </defs>
</svg>
